src/img/foursquare.svg

<svg width="13" height="19" xmlns="http://www.w3.org/2000/svg"><path d="M.92 0A.92.92 0 000 .92v16.516c0 .625.765.926 1.192.47l4.471-4.79A.357.357 0 015.927 13h3.237c.486 0 .905-.343 1.001-.82l2.111-10.514A1.392 1.392 0 0010.911 0H.92zm3.918 11.19L2 14.527V2.343C2 2.154 2.154 2 2.343 2h7.14a.54.54 0 01.53.648L9.6 4.703A.369.369 0 019.238 5h-3.71A.527.527 0 005 5.528v1.22c0 .139.113.252.253.252h3.294c.306 0 .536.28.476.581l-.614 3.058a.452.452 0 01-.442.361H5.25a.54.54 0 00-.412.19z" fill="#5C9901"/></svg>

<svg width="13" height="19" viewBox="0 0 13 19" version="1.1" xmlns="http://www.w3.org/2000/svg" xmlns:xlink="http://www.w3.org/1999/xlink"><title>foursquare</title><desc>Created with Sketch.</desc><g id="Page-1" stroke="none" stroke-width="1" fill="none" fill-rule="evenodd"><g id="foursquare" fill-rule="nonzero" fill="#5C9901"><path d="M0.92,0 C0.412,0 0,0.412 0,0.92 L0,17.436 C0,18.061 0.765,18.362 1.192,17.906 L5.663,13.116 C5.731,13.042 5.826,13 5.927,13 L9.164,13 C9.65,13 10.069,12.657 10.165,12.18 L12.276,1.666 C12.449,0.804 11.79,0 10.911,0 L0.92,0 Z M4.838,11.19 L2,14.527 L2,2.343 C2,2.154 2.154,2 2.343,2 L9.483,2 C9.825,2 10.081,2.313 10.013,2.648 L9.6,4.703 C9.566,4.876 9.414,5 9.238,5 L5.528,5 C5.236,5 5,5.236 5,5.528 L5,6.748 C5,6.887 5.113,7 5.253,7 L8.547,7 C8.853,7 9.083,7.28 9.023,7.581 L8.409,10.639 C8.366,10.849 8.181,11 7.967,11 L5.25,11 C5.091,11 4.941,11.069 4.838,11.19 Z" id="Shape"/></g></g></svg>
